X:1
T:Kedron (Spratt), 64.64.664
T:Kedron (Spratt), 64.64.664
T:Ann Baird Spratt, 1866
T:Public Domain Courtesy of the Cyber Hymnal™
C:Ann Baird Spratt, 1866
Z:Public Domain
Z:Courtesy of the Cyber Hymnal™
%%score ( 1 2 ) ( 3 4 )
L:1/8
M:4/4
K:F
V:1 treble 
V:2 treble 
V:3 bass 
V:4 bass 
V:1
 [FA]4 [FA]2 [FA]2 | [EA]3 [EG] [EG]4 | [EB]4 [EB]2 [EB]2 | [FA]8 | [Fc]4 [FB]2 [FA]2 | %5
 [D^G]3 [CA] [FA]4 | [DA]4 [DG]2 [FG]2 | [EG]8 | [Fd]4 [Fe]2 [Fd]2 | [Fd]3 [Fc] [Fc]4 | %10
 [EB]4 [Ec]2 [EB]2 | [FB]3 [FA] [FA]4 | A3 G [CF]2 [CE]2 | [CF]8 |] %14
V:2
 x8 | x8 | x8 | x8 | x8 | x8 | x8 | x8 | x8 | x8 | x8 | x8 | D4 x4 | x8 |] %14
V:3
 [F,C]4 [F,C]2 [F,C]2 | [B,C]3 [B,C] [B,C]4 | [G,C]4 [G,C]2 [G,C]2 | [F,C]8 | %4
 [F,_E]4 [F,D]2 [F,C]2 | [F,=B,]3 [F,C] [F,C]4 | [B,,B,]4 [B,,B,]2 [=B,,D]2 | [C,C]8 | %8
 [B,D]4 B,2 [B,D]2 | [A,F]3 [A,C] [A,C]4 | [G,C]4 [G,C]2 [G,C]2 | [F,C]3 [F,C] [F,C]4 | %12
 [B,,B,]4 [C,A,]2 [C,G,]2 | [F,A,]8 |] %14
V:4
 x8 | x8 | x8 | x8 | x8 | x8 | x8 | x8 | x4 B,2 x2 | x8 | x8 | x8 | x8 | x8 |] %14

